X:130
T:Humors of Ballinacarrig (reel), The 
T:Piper's Son
B:CRE2.295 (gan ainm)
F:file ID: cre.2/130hu_ball
S:Denis Murphy
N:First part resembles "Patsy Tuohey's"
R:reel
M:C
Q:180
K:Em
BEED BEE2|D2FA DAFA|BEED efge|dBAc BEED|
BEE2 cEE2|D2FA DAFA|BEED efge|dBAc BEE2||
e4 egfe|defg (3aba fd|edef gfge|dBAc BEE2|
e4 egfe|defg a2fa|b2ba faaf|edef gfed|]

%%%

